svgs/light/file-image.svg

<svg xmlns="http://www.w3.org/2000/svg" viewBox="0 0 384 512"><!--! Font Awesome Pro 6.3.0 by @fontawesome - https://fontawesome.com License - https://fontawesome.com/license (Commercial License) Copyright 2023 Fonticons, Inc. --><path d="M190.3 285.7l-26.36 40.67c-12-14.92-37.75-13.73-48.31 2.531l-46.69 72.02c-5.984 9.266-6.531 21.09-1.453 30.84C72.67 441.8 82.83 448 93.1 448h196c11.17 0 21.33-6.219 26.55-16.23c5.094-9.797 4.531-21.62-1.484-30.86l-74.66-115.2C229.3 268.5 201.4 268.5 190.3 285.7zM286.7 416L95.77 416l44.89-66.95l9.922 15.3c5.906 9.094 20.97 9.094 26.84 0l37.91-58.48L286.7 416zM96 280c13.25 0 24-10.75 24-24c0-13.26-10.75-24-24-24S72 242.7 72 256C72 269.3 82.75 280 96 280zM365.3 125.3l-106.5-106.5C246.7 6.742 230.5 0 213.5 0H64C28.65 0 0 28.65 0 64l.0065 384c0 35.35 28.65 64 64 64H320c35.35 0 64-28.65 64-64V170.5C384 153.5 377.3 137.3 365.3 125.3zM224 34.08c4.477 1.566 8.666 3.846 12.12 7.299l106.5 106.5C346.1 151.3 348.4 155.5 349.9 160H240C231.2 160 224 152.8 224 144V34.08zM352 448c0 17.64-14.36 32-32 32H64c-17.64 0-32-14.36-32-32V64c0-17.64 14.36-32 32-32h128v112C192 170.5 213.5 192 240 192H352V448z"/></svg>

<svg xmlns="http://www.w3.org/2000/svg" viewBox="0 0 384 512"><!-- Font Awesome Pro 6.0.0-alpha2 by @fontawesome - https://fontawesome.com License - https://fontawesome.com/license (Commercial License) --><path d="M190.266 285.703L163.906 326.375C151.906 311.453 126.156 312.641 115.594 328.906L68.906 400.922C62.922 410.188 62.375 422.016 67.453 431.766C72.672 441.781 82.828 448 94 448H290C301.172 448 311.328 441.781 316.547 431.766C321.641 421.969 321.078 410.141 315.062 400.906L240.406 285.703C229.281 268.547 201.391 268.516 190.266 285.703ZM286.734 416.031L95.766 416L140.656 349.047L150.578 364.344C156.484 373.437 171.547 373.437 177.422 364.344L215.328 305.859L286.734 416.031ZM96 280C109.254 280 120 269.254 120 256C120 242.744 109.254 232 96 232S72 242.744 72 256C72 269.254 82.746 280 96 280ZM365.256 125.254L258.746 18.746C246.744 6.742 230.465 0 213.49 0H64C28.654 0 0 28.654 0 64V448C0 483.346 28.654 512 64 512H320C355.348 512 384 483.346 384 448V170.51C384 153.535 377.258 137.258 365.256 125.254ZM224 34.076C228.477 35.643 232.666 37.922 236.119 41.375L342.627 147.879C346.08 151.332 348.357 155.523 349.924 160H240C231.188 160 224 152.828 224 144V34.076ZM352 448C352 465.645 337.645 480 320 480H64C46.355 480 32 465.645 32 448V64C32 46.355 46.355 32 64 32H192V144C192 170.469 213.531 192 240 192H352V448Z"/></svg>
